data/images/calendar-week.svg

<svg xmlns="http://www.w3.org/2000/svg" width="24" height="24" fill="#FFF">
  <path
    d="M19 4h-2V2h-2v2H9V2H7v2H5c-1.103 0-2 .897-2 2v14c0 1.103.897 2 2 2h14c1.103 0 2-.897 2-2V6c0-1.103-.897-2-2-2Zm-2 8v2H7v-3h10v1Zm2-3H5V7h14v2Z"
  />
</svg>

<svg width="24" height="24" viewBox="0 0 24 24" fill="#FFFFFF" xmlns="http://www.w3.org/2000/svg">
    <path d="M19 4H17V2H15V4H9V2H7V4H5C3.897 4 3 4.897 3 6V20C3 21.103 3.897 22 5 22H19C20.103 22 21 21.103 21 20V6C21 4.897 20.103 4 19 4ZM17 12V14H7V11H17V12ZM19 9H5V7H19V9Z"
          fill="#FFFFFF"/>
</svg>
